s/sf-logo.svg

<svg xmlns="http://www.w3.org/2000/svg"><style>/* svg * { transition: opacity 1s ease-out; } */ #wordmark-wrapped { opacity: 0; } @media all and (max-width: 449px){ #wordmark { opacity: 0; } #wordmark-wrapped { opacity: 1; } }</style><path id="wordmark-wrapped" fill="#FF4800" d="M170 103v-5.4h-26.3v5.4h26.3zm-13.3 14.8l-2.1-7.5h2.6v-5.4h-13.6v5.4h2.4l4.9 16.3h2.1l3.7-8.8zm-15.6-36.9h6.7v-7h-1.9c-1.7 0-3.6.7-4.8 1.8v5.2zm-6.9 45.7h11.5v-5.4h-3.1v-23.7h-12.4v5.4h4v23.7zm-4.9-31h13.3v-5.4h-2.6v-16.3h-10.7v5.4h2.3v10.9h-2.3v5.4zm-9.8 14.7v-3.9c-1.4-1.2-3.4-1.9-5.5-1.9-4.7 0-7.2 2.3-7.2 8.2v6.1c0 5.9 2.6 8.2 7.2 8.2 2.1 0 4.1-.7 5.5-1.9v-3.9h-1.5c-1.7 0-2.6-.7-2.6-2.6v-5.7c0-1.9.9-2.6 2.6-2.6h1.5zm8.1-15.6v-5.6c-3.8 1-6.7 1.5-9.5 1.5-2.4 0-3.2-.9-3.2-3.3v-13.8c-5.4 0-8.6 3.4-8.6 8.2v6.1c0 5.8 3.2 8.2 11.5 8.2 3.5 0 6.5-.5 9.8-1.3zm-12.1 8.3v-5.4h-20.6v5.4h20.6zm-23.8-8.9c1.4 1.2 3.4 1.9 5.5 1.9 4.7 0 7.2-2.3 7.2-8.2v-6.1c0-5.9-2.6-8.2-7.2-8.2-2.1 0-4.1.7-5.5 1.9v3.9h1.5c1.7 0 2.6.7 2.6 2.6v5.7c0 1.9-.9 2.6-2.6 2.6h-1.5v3.9zm0 16.2h1.3c1.7 0 2.6.7 2.6 2.6v13.7h10.1v-5.4h-1.7v-9.2c0-5.3-2.3-7.4-7-7.4-2 0-3.8.6-5.3 1.8v3.9zm-9.6-31v18.2h-2.3v5.4h13.9v-5.4h-3.2v-23.6h-10.7v5.4h2.3zm12.3 47.3v-5.4h-3.9v-16.3h-10.7v5.4h2.3v10.9h-2.3v5.4h14.6zm-27.9-22.1v5.4h1.6c1.9 0 2.7.7 2.7 3.3v.5h-4.3v4.2h11.6v-5.2c0-5.9-3.4-8.2-10.1-8.2h-1.5zm-1-30.6v5.4h3.9v16.3h10.7v-5.4h-2.3v-16.3h-12.3zm12.6 51.8v-5.6c-3.8 1-6.7 1.5-9.5 1.5-2.4 0-3.2-.9-3.2-3.3v-13.8c-5.4 0-8.6 3.4-8.6 8.2v6.1c0 5.8 3.2 8.2 11.5 8.2 3.5 0 6.5-.4 9.8-1.3zm.5-22.7v-5.4h-24.2v5.4h24.2zm-11.6-12.8c-1.7 0-2.6-.7-2.6-2.6v-13.7h-10.2v5.4h1.8v9.2c0 5.3 2.3 7.4 7 7.4 2 0 3.8-.6 5.3-1.8v-4l-1.3.1zm-22.1 12.8h8.4v-5.4h-8.4v5.4zm0 1.9v16.3h-2.3v5.4h13v-5.4h-2.3v-16.3h-8.4zm-3.7-33.1c1.5 0 2.8.2 4.1.5v4.5h7v-9.1c-3.7-1-7-1.6-11-1.6l-.1 5.7zm-4.2 40.1h6.7v-7h-1.9c-1.7 0-3.6.7-4.8 1.8v5.2zm4.2-15.9c8.5 0 12.1-3.1 12.1-7.7v-2.7c0-4.2-2.1-6.2-7-7.5l-7.9-2.1c-1.4-.3-1.8-1-1.8-2.1 0-1.3.8-2.1 3.4-2.1v-5.7c-8.6 0-11.9 3-11.9 8.1v2.2c0 4.2 2.1 6.2 7 7.5l7.7 2.1c1.5.4 1.8 1 1.8 2.2 0 1.3-.7 2-3.4 2v5.8zm-28.1 19.8h9.1v-6.2h-9.1v6.2zm30.6-12.8v-5.4h-16.3v5.4h16.3zm-30.6 0h6.3v5.4h6.8v-10.9h-13.1v5.5zm26.9-12.8c-1.8 0-3.6-.2-5-.6v-4.4h-7v9.4c3.5 1 7.4 1.5 12 1.5v-5.9zm-14.9 36.4h13.8v-5.4h-3.1v-16.3h-8.4v16.3h-2.3v5.4zm-13.1-29.1h-11.6v5.4h2.4v18.2h-2.8v5.4h16.6v-5.4h-4.6v-23.6zm140.1 31.1h-152.1v5.4h152.1c4.9 0 7.3-1.6 8.7-5.3l7.2-18.3h1.9v-5.4h-11.5v5.4h2.6l-6.5 16.1c-.4 1.1-.9 2.1-2.4 2.1zm-19.1-7.4h-4v-23.7h-12.4v5.4h4v23.7h12.4v-5.4zm-17-47.7v5.4h1.6c1.9 0 2.7.7 2.7 3.3v.5h-4.3v4.2h11.6v-5.2c0-5.9-3.4-8.2-10.1-8.2h-1.5z"/><path id="shield" fill="#FF4800" d="M84.7 67.3c-28.7-11-27.5-23.8-27.5-23.8v-37.4c7.5-5.6 25.9-6.1 27.4-6.1h.2c1.6 0 20 .5 27.4 6.1v37.4s1.1 12.8-27.5 23.8z"/><path id="emblem" fill="#fff" d="M95 17.3h-17.4c-7.5 0-7.5 7.9-7.5 7.9 0 6 3.9 7.4 5.4 7.8h-5.7v5.8c0 4.2 3 5 4.8 5.1v.1h1.4v-17.6c0-3.8 4.9-3.6 4.9-3.6h12.7v5.2h-12v5.6h12v1c0 3.8-4.9 3.6-4.9 3.6h-7.1v5.6h10.5c7.5 0 7.5-7.9 7.5-7.9 0-6.6-4.3-7.6-5.3-7.8h5.6v-5.8c-.1-4.1-3.1-4.9-4.9-5z"/><path id="wordmark" fill="#FF4800" d="M414.7 35.8l-2.1-7.6h2.7v-5.7h-14v5.7h2.4l5.2 17.1h2.1l3.7-9.5zm-23.5 9.4h12v-5.7h-3.2v-24.7h-12.8v5.7h4v24.7zm-1.4-5.6h-4v-24.8h-12.9v5.7h4.1v24.8h12.8v-5.7zm-19.7 6.1c2.2 0 4.2-.7 5.6-1.9v-4.1h-1.5c-1.8 0-2.7-.7-2.7-2.7v-6c0-2 .9-2.7 2.7-2.7h1.5v-4.3c-1.5-1.2-3.5-1.9-5.6-1.9-4.9 0-7.6 2.4-7.6 8.6v6.3c0 6.2 2.7 8.7 7.6 8.7zm-19.2-.5h10.6v-5.7h-1.8v-9.7c0-5.6-2.4-7.8-7.3-7.8-2.1 0-3.9.6-5.4 1.8v4.3h1.3c1.8 0 2.7.7 2.7 2.7v14.4h-.1zm-1.4 0v-5.7h-4v-17h-11.2v5.7h2.4v11.4h-2.4v5.7c0-.1 15.2-.1 15.2-.1zm-28.9-9h12v-5.4c0-6.2-3.6-8.6-10.6-8.6h-1.4v5.7h1.5c2 0 2.8.7 2.8 3.5v.5h-4.3v4.3zm12 8v-5.9c-3.9 1.1-7 1.5-10 1.5-2.6 0-3.4-.9-3.4-3.5v-14.3c-5.6 0-9 3.5-9 8.6v6.3c0 6.1 3.4 8.6 12.1 8.6 3.7.2 6.8-.3 10.3-1.3zm-34.8-23.7h8.8v-5.7h-8.8v5.7zm0 2v17.1h-2.4v5.7h13.6v-5.7h-2.4v-17.1h-8.8zm-8.1 7.3h6.8v-7.3h-1.9c-1.7 0-3.7.7-4.9 1.8v5.5zm-12.5 15.4h14.5v-5.7h-3.3v-17h-8.8v17.1h-2.4v5.6zm-12.5-24.7h6.5v5.5h7.1v-11.2h-13.6v5.7zm0 13.3h9.3v-6.5h-9.3v6.5zm-1.3-19h-12.1v5.7h2.5v19.1h-2.9v5.7h17.4v-5.7h-4.9v-24.8zm-17.8 15h6.8v-7.3h-1.9c-1.7 0-3.7.7-4.9 1.8v5.5zm-12.5 15.4h14.5v-5.7h-3.3v-17h-11.2v5.7h2.4v11.4h-2.4v5.6zm-13.8-9h12v-5.4c0-6.2-3.6-8.6-10.5-8.6h-1.5v5.7h1.5c2 0 2.8.7 2.8 3.5v.5h-4.3v4.3zm12 8v-5.9c-3.9 1.1-7 1.5-10 1.5-2.6 0-3.4-.9-3.4-3.5v-14.3c-5.6 0-9 3.5-9 8.6v6.3c0 6.1 3.4 8.6 12.1 8.6 3.8.2 6.9-.3 10.3-1.3zm178.6 3h-212.6v5.8h212.6c5.2 0 7.6-1.7 9.1-5.6l7.5-19.2h2v-5.7h-12v5.7h2.6l-6.7 16.9c-.4 1.1-.9 2.1-2.5 2.1zm-229.9 0h-52.7v5.8h52.7v-5.8zm-40.2-7.6c-1.8 0-3.7-.2-5.2-.6v-4.6h-7.3v9.8c3.7 1 7.8 1.5 12.5 1.5v-6.1zm1.3-19.4c1.5 0 2.8.2 4.2.5v4.8h7.3v-9.5c-3.9-1.1-7.4-1.7-11.5-1.7v5.9zm25.5 2.3v5.7h4v17.1h11.2v-5.7h-2.4v-17.1h-12.8zm1.4 17.1c-1.8 0-2.7-.7-2.7-2.7v-14.4h-10.6v5.7h1.8v9.7c0 5.6 2.4 7.8 7.3 7.8 2.1 0 3.9-.6 5.4-1.8v-4.3h-1.2zm15.8-11.4h-2.4v-5.7h11.2v24.8h3.3v5.7h-14.5v-5.7h2.4v-19.1zm15.8 17.5c4.9 0 7.6-2.4 7.6-8.6v-6.3c0-6.2-2.7-8.6-7.6-8.6-2.2 0-4.2.7-5.6 1.9v4.1h1.5c1.8 0 2.7.7 2.7 2.7v5.9c0 2-.9 2.7-2.7 2.7h-1.5v4.1c1.4 1.2 3.4 2.1 5.6 2.1zm-58.5 0c8.8 0 12.6-3.2 12.6-8.1v-2.8c0-4.4-2.2-6.5-7.3-7.8l-8.2-2.2c-1.4-.5-1.9-1.2-1.9-2.3 0-1.3.8-2.1 3.5-2.1v-6c-8.9 0-12.4 3.1-12.4 8.5v2.3c0 4.4 2.2 6.5 7.3 7.8l8.1 2.2c1.6.4 1.9 1 1.9 2.3s-.8 2.1-3.5 2.1l-.1 6.1z"/></svg>

<?xml version="1.0" encoding="utf-8"?>
<!-- Generator: Adobe Illustrator 18.1.1, SVG Export Plug-In . SVG Version: 6.00 Build 0)  -->
<svg version="1.1" xmlns="http://www.w3.org/2000/svg" xmlns:xlink="http://www.w3.org/1999/xlink" xml:space="preserve">
	<style>

		/* 
		svg * {
            transition: opacity 1s ease-out;
        }
        */

		#wordmark-wrapped {
			opacity: 0;
		}

		@media all and (max-width: 449px){
			#wordmark {
				opacity: 0;
			}

			#wordmark-wrapped {
				opacity: 1;
			}
		}
		

	</style>
	
	<path id="wordmark-wrapped" fill="#FF4800" d="M170,103v-5.4h-26.3v5.4H170z M156.7,117.8l-2.1-7.5h2.6v-5.4h-13.6v5.4h2.4l4.9,16.3
	h2.1L156.7,117.8z M141.1,80.9h6.7v-7h-1.9c-1.7,0-3.6,0.7-4.8,1.8V80.9z M134.2,126.6h11.5v-5.4h-3.1V97.5h-12.4v5.4h4V126.6z
	 M129.3,95.6h13.3v-5.4H140V73.9h-10.7v5.4h2.3v10.9h-2.3V95.6z M119.5,110.3v-3.9c-1.4-1.2-3.4-1.9-5.5-1.9c-4.7,0-7.2,2.3-7.2,8.2
	v6.1c0,5.9,2.6,8.2,7.2,8.2c2.1,0,4.1-0.7,5.5-1.9v-3.9H118c-1.7,0-2.6-0.7-2.6-2.6v-5.7c0-1.9,0.9-2.6,2.6-2.6
	C118,110.3,119.5,110.3,119.5,110.3z M127.6,94.7v-5.6c-3.8,1-6.7,1.5-9.5,1.5c-2.4,0-3.2-0.9-3.2-3.3V73.5c-5.4,0-8.6,3.4-8.6,8.2
	v6.1c0,5.8,3.2,8.2,11.5,8.2C121.3,96,124.3,95.5,127.6,94.7z M115.5,103v-5.4H94.9v5.4H115.5z M91.7,94.1c1.4,1.2,3.4,1.9,5.5,1.9
	c4.7,0,7.2-2.3,7.2-8.2v-6.1c0-5.9-2.6-8.2-7.2-8.2c-2.1,0-4.1,0.7-5.5,1.9v3.9h1.5c1.7,0,2.6,0.7,2.6,2.6v5.7
	c0,1.9-0.9,2.6-2.6,2.6h-1.5V94.1z M91.7,110.3H93c1.7,0,2.6,0.7,2.6,2.6v13.7h10.1v-5.4H104V112c0-5.3-2.3-7.4-7-7.4
	c-2,0-3.8,0.6-5.3,1.8V110.3z M82.1,79.3v18.2h-2.3v5.4h13.9v-5.4h-3.2V73.9H79.8v5.4H82.1z M94.4,126.6v-5.4h-3.9v-16.3H79.8v5.4
	h2.3v10.9h-2.3v5.4H94.4z M66.5,104.5v5.4h1.6c1.9,0,2.7,0.7,2.7,3.3v0.5h-4.3v4.2h11.6v-5.2c0-5.9-3.4-8.2-10.1-8.2
	C68,104.5,66.5,104.5,66.5,104.5z M65.5,73.9v5.4h3.9v16.3h10.7v-5.4h-2.3V73.9H65.5z M78.1,125.7v-5.6c-3.8,1-6.7,1.5-9.5,1.5
	c-2.4,0-3.2-0.9-3.2-3.3v-13.8c-5.4,0-8.6,3.4-8.6,8.2v6.1c0,5.8,3.2,8.2,11.5,8.2C71.8,127,74.8,126.6,78.1,125.7z M78.6,103v-5.4
	H54.4v5.4H78.6z M67,90.2c-1.7,0-2.6-0.7-2.6-2.6V73.9H54.2v5.4H56v9.2c0,5.3,2.3,7.4,7,7.4c2,0,3.8-0.6,5.3-1.8v-4L67,90.2L67,90.2
	z M44.9,103h8.4v-5.4h-8.4V103z M44.9,104.9v16.3h-2.3v5.4h13v-5.4h-2.3v-16.3C53.3,104.9,44.9,104.9,44.9,104.9z M41.2,71.8
	c1.5,0,2.8,0.2,4.1,0.5v4.5h7v-9.1c-3.7-1-7-1.6-11-1.6L41.2,71.8L41.2,71.8z M37,111.9h6.7v-7h-1.9c-1.7,0-3.6,0.7-4.8,1.8V111.9z
	 M41.2,96c8.5,0,12.1-3.1,12.1-7.7v-2.7c0-4.2-2.1-6.2-7-7.5L38.4,76c-1.4-0.3-1.8-1-1.8-2.1c0-1.3,0.8-2.1,3.4-2.1v-5.7
	c-8.6,0-11.9,3-11.9,8.1v2.2c0,4.2,2.1,6.2,7,7.5l7.7,2.1c1.5,0.4,1.8,1,1.8,2.2c0,1.3-0.7,2-3.4,2C41.2,90.2,41.2,96,41.2,96z
	 M13.1,115.8h9.1v-6.2h-9.1V115.8z M43.7,103v-5.4H27.4v5.4H43.7z M13.1,103h6.3v5.4h6.8V97.5H13.1V103z M40,90.2
	c-1.8,0-3.6-0.2-5-0.6v-4.4h-7v9.4c3.5,1,7.4,1.5,12,1.5V90.2z M25.1,126.6h13.8v-5.4h-3.1v-16.3h-8.4v16.3h-2.3
	C25.1,121.2,25.1,126.6,25.1,126.6z M12,97.5H0.4v5.4h2.4v18.2H0v5.4h16.6v-5.4H12V97.5z M152.1,128.6H0v5.4h152.1
	c4.9,0,7.3-1.6,8.7-5.3l7.2-18.3h1.9V105h-11.5v5.4h2.6l-6.5,16.1C154.1,127.6,153.6,128.6,152.1,128.6z M133,121.2h-4V97.5h-12.4
	v5.4h4v23.7H133V121.2z M116,73.5v5.4h1.6c1.9,0,2.7,0.7,2.7,3.3v0.5H116v4.2h11.6v-5.2c0-5.9-3.4-8.2-10.1-8.2
	C117.5,73.5,116,73.5,116,73.5z"/>

	<path id="shield" fill="#FF4800" d="M84.7,67.3L84.7,67.3L84.7,67.3C56,56.3,57.2,43.5,57.2,43.5V6.1C64.7,0.5,83.1,0,84.6,0l0,0
	c0,0,0,0,0.1,0h0.1l0,0c1.6,0,20,0.5,27.4,6.1v37.4C112.2,43.5,113.3,56.3,84.7,67.3z"/>

	<path id="emblem" fill="#FFFFFF" d="M95,17.3L95,17.3H77.6c-7.5,0-7.5,7.9-7.5,7.9c0,6,3.9,7.4,5.4,7.8h-5.7v5.8c0,4.2,3,5,4.8,5.1
	V44H76v-0.1v-5v-0.4V33v-6.6c0-3.8,4.9-3.6,4.9-3.6h12.7V28h-12v5.6h12v1c0,3.8-4.9,3.6-4.9,3.6h-7.1v5.6h10.5
	c7.5,0,7.5-7.9,7.5-7.9c0-6.6-4.3-7.6-5.3-7.8h5.6v-5.8C99.8,18.2,96.8,17.4,95,17.3z"/>

	<path id="wordmark" fill="#FF4800" d="M414.7,35.8l-2.1-7.6h2.7v-5.7h-14v5.7h2.4l5.2,17.1h2.1L414.7,35.8z M391.2,45.2h12v-5.7H400V14.8h-12.8
	v5.7h4V45.2z M389.8,39.6h-4V14.8h-12.9v5.7h4.1v24.8h12.8V39.6z M370.1,45.7c2.2,0,4.2-0.7,5.6-1.9v-4.1h-1.5
	c-1.8,0-2.7-0.7-2.7-2.7V31c0-2,0.9-2.7,2.7-2.7h1.5V24c-1.5-1.2-3.5-1.9-5.6-1.9c-4.9,0-7.6,2.4-7.6,8.6v6.3
	C362.5,43.2,365.2,45.7,370.1,45.7z M350.9,45.2h10.6v-5.7h-1.8v-9.7c0-5.6-2.4-7.8-7.3-7.8c-2.1,0-3.9,0.6-5.4,1.8v4.3h1.3
	c1.8,0,2.7,0.7,2.7,2.7v14.4H350.9z M349.5,45.2v-5.7h-4V22.5h-11.2v5.7h2.4v11.4h-2.4v5.7C334.3,45.2,349.5,45.2,349.5,45.2z
	 M320.6,36.2h12v-5.4c0-6.2-3.6-8.6-10.6-8.6h-1.4v5.7h1.5c2,0,2.8,0.7,2.8,3.5v0.5h-4.3V36.2z M332.6,44.2v-5.9
	c-3.9,1.1-7,1.5-10,1.5c-2.6,0-3.4-0.9-3.4-3.5V22c-5.6,0-9,3.5-9,8.6v6.3c0,6.1,3.4,8.6,12.1,8.6C326,45.7,329.1,45.2,332.6,44.2z
	 M297.8,20.5h8.8v-5.7h-8.8V20.5z M297.8,22.5v17.1h-2.4v5.7H309v-5.7h-2.4V22.5H297.8z M289.7,29.8h6.8v-7.3h-1.9
	c-1.7,0-3.7,0.7-4.9,1.8L289.7,29.8L289.7,29.8z M277.2,45.2h14.5v-5.7h-3.3V22.5h-8.8v17.1h-2.4V45.2z M264.7,20.5h6.5V26h7.1V14.8
	h-13.6V20.5z M264.7,33.8h9.3v-6.5h-9.3V33.8z M263.4,14.8h-12.1v5.7h2.5v19.1h-2.9v5.7h17.4v-5.7h-4.9V14.8z M245.6,29.8h6.8v-7.3
	h-1.9c-1.7,0-3.7,0.7-4.9,1.8V29.8z M233.1,45.2h14.5v-5.7h-3.3V22.5h-11.2v5.7h2.4v11.4h-2.4V45.2z M219.3,36.2h12v-5.4
	c0-6.2-3.6-8.6-10.5-8.6h-1.5v5.7h1.5c2,0,2.8,0.7,2.8,3.5v0.5h-4.3V36.2z M231.3,44.2v-5.9c-3.9,1.1-7,1.5-10,1.5
	c-2.6,0-3.4-0.9-3.4-3.5V22c-5.6,0-9,3.5-9,8.6v6.3c0,6.1,3.4,8.6,12.1,8.6C224.8,45.7,227.9,45.2,231.3,44.2z M409.9,47.2H197.3V53
	h212.6c5.2,0,7.6-1.7,9.1-5.6l7.5-19.2h2v-5.7h-12v5.7h2.6l-6.7,16.9C412,46.2,411.5,47.2,409.9,47.2z M180,47.2h-52.7V53H180V47.2z
	 M139.8,39.6c-1.8,0-3.7-0.2-5.2-0.6v-4.6h-7.3v9.8c3.7,1,7.8,1.5,12.5,1.5V39.6z M141.1,20.2c1.5,0,2.8,0.2,4.2,0.5v4.8h7.3v-9.5
	c-3.9-1.1-7.4-1.7-11.5-1.7V20.2z M166.6,22.5v5.7h4v17.1h11.2v-5.7h-2.4V22.5H166.6z M168,39.6c-1.8,0-2.7-0.7-2.7-2.7V22.5h-10.6
	v5.7h1.8v9.7c0,5.6,2.4,7.8,7.3,7.8c2.1,0,3.9-0.6,5.4-1.8v-4.3H168z M183.8,28.2h-2.4v-5.7h11.2v24.8h3.3V53h-14.5v-5.7h2.4V28.2z
	 M199.6,45.7c4.9,0,7.6-2.4,7.6-8.6v-6.3c0-6.2-2.7-8.6-7.6-8.6c-2.2,0-4.2,0.7-5.6,1.9v4.1h1.5c1.8,0,2.7,0.7,2.7,2.7v5.9
	c0,2-0.9,2.7-2.7,2.7H194v4.1C195.4,44.8,197.4,45.7,199.6,45.7z M141.1,45.7c8.8,0,12.6-3.2,12.6-8.1v-2.8c0-4.4-2.2-6.5-7.3-7.8
	l-8.2-2.2c-1.4-0.5-1.9-1.2-1.9-2.3c0-1.3,0.8-2.1,3.5-2.1v-6c-8.9,0-12.4,3.1-12.4,8.5v2.3c0,4.4,2.2,6.5,7.3,7.8l8.1,2.2
	c1.6,0.4,1.9,1,1.9,2.3s-0.8,2.1-3.5,2.1L141.1,45.7L141.1,45.7z"/>

</svg>
